TileServer und Tiles/svg/9/98_21.svg

<?xml version='1.0' encoding='UTF-8' standalone='no'?>
<svg xmlns="http://www.w3.org/2000/svg" width="497pt" viewBox="0 0 497 279" xmlns:xlink="http://www.w3.org/1999/xlink" height="279pt">
 <defs style="stroke:none;" overflow="visible">
  <path id="glyph0-7" d="M 1.734375 0 L 0.84375 0 L 0.84375 -7.59375 L 1.734375 -7.59375 Z M 1.734375 0 "/>
  <path id="glyph0-6" d="M 1.296875 -7.375 C 1.429688 -7.375 1.550781 -7.328125 1.65625 -7.234375 C 1.757812 -7.140625 1.8125 -7 1.8125 -6.8125 C 1.8125 -6.625 1.757812 -6.484375 1.65625 -6.390625 C 1.550781 -6.296875 1.429688 -6.25 1.296875 -6.25 C 1.148438 -6.25 1.023438 -6.296875 0.921875 -6.390625 C 0.828125 -6.484375 0.78125 -6.625 0.78125 -6.8125 C 0.78125 -7 0.828125 -7.140625 0.921875 -7.234375 C 1.023438 -7.328125 1.148438 -7.375 1.296875 -7.375 Z M 1.734375 -5.359375 L 1.734375 0 L 0.84375 0 L 0.84375 -5.359375 Z M 1.734375 -5.359375 "/>
  <path id="glyph0-5" d="M 3 0.09375 C 2.53125 0.09375 2.109375 0 1.734375 -0.1875 C 1.367188 -0.382812 1.078125 -0.6875 0.859375 -1.09375 C 0.648438 -1.5 0.546875 -2.019531 0.546875 -2.65625 C 0.546875 -3.3125 0.65625 -3.84375 0.875 -4.25 C 1.09375 -4.664062 1.390625 -4.96875 1.765625 -5.15625 C 2.148438 -5.351562 2.582031 -5.453125 3.0625 -5.453125 C 3.332031 -5.453125 3.59375 -5.425781 3.84375 -5.375 C 4.101562 -5.320312 4.3125 -5.253906 4.46875 -5.171875 L 4.203125 -4.4375 C 4.035156 -4.5 3.84375 -4.554688 3.625 -4.609375 C 3.414062 -4.660156 3.222656 -4.6875 3.046875 -4.6875 C 1.984375 -4.6875 1.453125 -4.007812 1.453125 -2.65625 C 1.453125 -2.007812 1.582031 -1.515625 1.84375 -1.171875 C 2.101562 -0.828125 2.484375 -0.65625 2.984375 -0.65625 C 3.285156 -0.65625 3.546875 -0.6875 3.765625 -0.75 C 3.984375 -0.8125 4.1875 -0.882812 4.375 -0.96875 L 4.375 -0.1875 C 4.195312 -0.09375 4 -0.0234375 3.78125 0.015625 C 3.5625 0.0664062 3.300781 0.09375 3 0.09375 Z M 3 0.09375 "/>
  <path id="glyph0-4" d="M 3.34375 -5.453125 C 3.445312 -5.453125 3.554688 -5.445312 3.671875 -5.4375 C 3.785156 -5.4375 3.890625 -5.425781 3.984375 -5.40625 L 3.875 -4.59375 C 3.78125 -4.613281 3.679688 -4.628906 3.578125 -4.640625 C 3.484375 -4.648438 3.390625 -4.65625 3.296875 -4.65625 C 3.015625 -4.65625 2.753906 -4.578125 2.515625 -4.421875 C 2.273438 -4.273438 2.082031 -4.066406 1.9375 -3.796875 C 1.800781 -3.535156 1.734375 -3.222656 1.734375 -2.859375 L 1.734375 0 L 0.84375 0 L 0.84375 -5.359375 L 1.5625 -5.359375 L 1.671875 -4.375 L 1.703125 -4.375 C 1.878906 -4.664062 2.101562 -4.914062 2.375 -5.125 C 2.65625 -5.34375 2.976562 -5.453125 3.34375 -5.453125 Z M 3.34375 -5.453125 "/>
  <path id="glyph0-3" d="M 5.328125 -5.359375 L 5.328125 0 L 4.609375 0 L 4.484375 -0.703125 L 4.4375 -0.703125 C 4.269531 -0.429688 4.03125 -0.226562 3.71875 -0.09375 C 3.414062 0.03125 3.085938 0.09375 2.734375 0.09375 C 2.085938 0.09375 1.601562 -0.0546875 1.28125 -0.359375 C 0.957031 -0.671875 0.796875 -1.164062 0.796875 -1.84375 L 0.796875 -5.359375 L 1.6875 -5.359375 L 1.6875 -1.90625 C 1.6875 -1.050781 2.082031 -0.625 2.875 -0.625 C 3.46875 -0.625 3.878906 -0.789062 4.109375 -1.125 C 4.335938 -1.457031 4.453125 -1.9375 4.453125 -2.5625 L 4.453125 -5.359375 Z M 5.328125 -5.359375 "/>
  <path id="glyph0-2" d="M 1.734375 -7.59375 L 1.734375 -5.375 C 1.734375 -5.101562 1.71875 -4.851562 1.6875 -4.625 L 1.734375 -4.625 C 1.910156 -4.894531 2.144531 -5.097656 2.4375 -5.234375 C 2.738281 -5.378906 3.0625 -5.453125 3.40625 -5.453125 C 4.0625 -5.453125 4.550781 -5.296875 4.875 -4.984375 C 5.207031 -4.671875 5.375 -4.171875 5.375 -3.484375 L 5.375 0 L 4.5 0 L 4.5 -3.4375 C 4.5 -4.289062 4.097656 -4.71875 3.296875 -4.71875 C 2.703125 -4.71875 2.289062 -4.546875 2.0625 -4.203125 C 1.84375 -3.867188 1.734375 -3.390625 1.734375 -2.765625 L 1.734375 0 L 0.84375 0 L 0.84375 -7.59375 Z M 1.734375 -7.59375 "/>
  <path id="glyph0-1" d="M 4.03125 -6.453125 C 3.257812 -6.453125 2.65625 -6.191406 2.21875 -5.671875 C 1.78125 -5.160156 1.5625 -4.457031 1.5625 -3.5625 C 1.5625 -2.675781 1.765625 -1.972656 2.171875 -1.453125 C 2.585938 -0.941406 3.203125 -0.6875 4.015625 -0.6875 C 4.328125 -0.6875 4.625 -0.710938 4.90625 -0.765625 C 5.1875 -0.816406 5.460938 -0.882812 5.734375 -0.96875 L 5.734375 -0.1875 C 5.460938 -0.09375 5.1875 -0.0234375 4.90625 0.015625 C 4.625 0.0664062 4.285156 0.09375 3.890625 0.09375 C 3.160156 0.09375 2.550781 -0.0507812 2.0625 -0.34375 C 1.582031 -0.644531 1.21875 -1.070312 0.96875 -1.625 C 0.726562 -2.175781 0.609375 -2.828125 0.609375 -3.578125 C 0.609375 -4.296875 0.738281 -4.929688 1 -5.484375 C 1.269531 -6.035156 1.660156 -6.460938 2.171875 -6.765625 C 2.679688 -7.078125 3.304688 -7.234375 4.046875 -7.234375 C 4.796875 -7.234375 5.453125 -7.09375 6.015625 -6.8125 L 5.65625 -6.0625 C 5.425781 -6.15625 5.175781 -6.242188 4.90625 -6.328125 C 4.644531 -6.410156 4.351562 -6.453125 4.03125 -6.453125 Z M 4.03125 -6.453125 "/>
  <path id="glyph0-0" d="M 0.9375 0 L 0.9375 -7.140625 L 5.046875 -7.140625 L 5.046875 0 Z M 1.453125 -0.515625 L 4.546875 -0.515625 L 4.546875 -6.625 L 1.453125 -6.625 Z M 1.453125 -0.515625 "/>
 </defs>
 <image width="497" xlink:href="svg/9/98_21.jpg" height="279"/>
 <g>
  <path d="M 309.8125 14.40625 C 309.039062 14.40625 308.4375 14.667969 308 15.1875 C 307.5625 15.699219 307.34375 16.402344 307.34375 17.296875 C 307.34375 18.183594 307.546875 18.886719 307.953125 19.40625 C 308.367188 19.917969 308.984375 20.171875 309.796875 20.171875 C 310.109375 20.171875 310.40625 20.148438 310.6875 20.09375 C 310.96875 20.042969 311.242188 19.976562 311.515625 19.890625 L 311.515625 20.671875 C 311.242188 20.765625 310.96875 20.835938 310.6875 20.875 C 310.40625 20.925781 310.066406 20.953125 309.671875 20.953125 C 308.941406 20.953125 308.332031 20.808594 307.84375 20.515625 C 307.363281 20.214844 307 19.789062 306.75 19.234375 C 306.507812 18.683594 306.390625 18.03125 306.390625 17.28125 C 306.390625 16.5625 306.519531 15.929688 306.78125 15.375 C 307.050781 14.824219 307.441406 14.398438 307.953125 14.09375 C 308.460938 13.78125 309.085938 13.625 309.828125 13.625 C 310.578125 13.625 311.234375 13.765625 311.796875 14.046875 L 311.4375 14.796875 C 311.207031 14.703125 310.957031 14.617188 310.6875 14.53125 C 310.425781 14.449219 310.132812 14.40625 309.8125 14.40625 Z M 309.8125 14.40625 " transform=" rotate(  340 328.315 17.8606) " style="fill:none;stroke-width:3;stroke-linecap:butt;stroke-linejoin:round;stroke:rgb(100%,100%,100%);stroke-opacity:0.6;stroke-miterlimit:10;"/>
  <path d="M 313.832031 13.265625 L 313.832031 15.484375 C 313.832031 15.757812 313.816406 16.007812 313.785156 16.234375 L 313.832031 16.234375 C 314.007812 15.964844 314.242188 15.761719 314.535156 15.625 C 314.835938 15.480469 315.160156 15.40625 315.503906 15.40625 C 316.160156 15.40625 316.648438 15.5625 316.972656 15.875 C 317.304688 16.1875 317.472656 16.6875 317.472656 17.375 L 317.472656 20.859375 L 316.597656 20.859375 L 316.597656 17.421875 C 316.597656 16.570312 316.195312 16.140625 315.394531 16.140625 C 314.800781 16.140625 314.386719 16.3125 314.160156 16.65625 C 313.941406 16.992188 313.832031 17.46875 313.832031 18.09375 L 313.832031 20.859375 L 312.941406 20.859375 L 312.941406 13.265625 Z M 313.832031 13.265625 " transform=" rotate(  340 328.315 17.8606) " style="fill:none;stroke-width:3;stroke-linecap:butt;stroke-linejoin:round;stroke:rgb(100%,100%,100%);stroke-opacity:0.6;stroke-miterlimit:10;"/>
  <path d="M 323.609375 15.5 L 323.609375 20.859375 L 322.890625 20.859375 L 322.765625 20.15625 L 322.71875 20.15625 C 322.550781 20.429688 322.3125 20.632812 322 20.765625 C 321.695312 20.890625 321.367188 20.953125 321.015625 20.953125 C 320.367188 20.953125 319.882812 20.804688 319.5625 20.5 C 319.238281 20.1875 319.078125 19.695312 319.078125 19.015625 L 319.078125 15.5 L 319.96875 15.5 L 319.96875 18.953125 C 319.96875 19.808594 320.363281 20.234375 321.15625 20.234375 C 321.75 20.234375 322.160156 20.070312 322.390625 19.734375 C 322.617188 19.402344 322.734375 18.921875 322.734375 18.296875 L 322.734375 15.5 Z M 323.609375 15.5 " transform=" rotate(  340 328.315 17.8606) " style="fill:none;stroke-width:3;stroke-linecap:butt;stroke-linejoin:round;stroke:rgb(100%,100%,100%);stroke-opacity:0.6;stroke-miterlimit:10;"/>
  <path d="M 327.804688 15.40625 C 327.90625 15.40625 328.015625 15.414062 328.132812 15.421875 C 328.246094 15.421875 328.351562 15.433594 328.445312 15.453125 L 328.335938 16.265625 C 328.242188 16.246094 328.140625 16.230469 328.039062 16.21875 C 327.945312 16.210938 327.851562 16.203125 327.757812 16.203125 C 327.476562 16.203125 327.214844 16.28125 326.976562 16.4375 C 326.734375 16.585938 326.542969 16.792969 326.398438 17.0625 C 326.261719 17.324219 326.195312 17.636719 326.195312 18 L 326.195312 20.859375 L 325.304688 20.859375 L 325.304688 15.5 L 326.023438 15.5 L 326.132812 16.484375 L 326.164062 16.484375 C 326.339844 16.195312 326.5625 15.945312 326.835938 15.734375 C 327.117188 15.515625 327.4375 15.40625 327.804688 15.40625 Z M 327.804688 15.40625 " transform=" rotate(  340 328.315 17.8606) " style="fill:none;stroke-width:3;stroke-linecap:butt;stroke-linejoin:round;stroke:rgb(100%,100%,100%);stroke-opacity:0.6;stroke-miterlimit:10;"/>
  <path d="M 331.390625 20.953125 C 330.921875 20.953125 330.5 20.859375 330.125 20.671875 C 329.757812 20.476562 329.46875 20.171875 329.25 19.765625 C 329.039062 19.359375 328.9375 18.839844 328.9375 18.203125 C 328.9375 17.546875 329.046875 17.015625 329.265625 16.609375 C 329.484375 16.195312 329.78125 15.890625 330.15625 15.703125 C 330.539062 15.507812 330.972656 15.40625 331.453125 15.40625 C 331.722656 15.40625 331.984375 15.433594 332.234375 15.484375 C 332.492188 15.539062 332.703125 15.605469 332.859375 15.6875 L 332.59375 16.421875 C 332.425781 16.359375 332.234375 16.304688 332.015625 16.25 C 331.804688 16.199219 331.613281 16.171875 331.4375 16.171875 C 330.375 16.171875 329.84375 16.851562 329.84375 18.203125 C 329.84375 18.851562 329.972656 19.34375 330.234375 19.6875 C 330.492188 20.03125 330.875 20.203125 331.375 20.203125 C 331.675781 20.203125 331.9375 20.171875 332.15625 20.109375 C 332.375 20.046875 332.578125 19.976562 332.765625 19.890625 L 332.765625 20.671875 C 332.585938 20.765625 332.390625 20.835938 332.171875 20.875 C 331.953125 20.925781 331.691406 20.953125 331.390625 20.953125 Z M 331.390625 20.953125 " transform=" rotate(  340 328.315 17.8606) " style="fill:none;stroke-width:3;stroke-linecap:butt;stroke-linejoin:round;stroke:rgb(100%,100%,100%);stroke-opacity:0.6;stroke-miterlimit:10;"/>
  <path d="M 334.925781 13.265625 L 334.925781 15.484375 C 334.925781 15.757812 334.910156 16.007812 334.878906 16.234375 L 334.925781 16.234375 C 335.101562 15.964844 335.335938 15.761719 335.628906 15.625 C 335.929688 15.480469 336.253906 15.40625 336.597656 15.40625 C 337.253906 15.40625 337.742188 15.5625 338.066406 15.875 C 338.398438 16.1875 338.566406 16.6875 338.566406 17.375 L 338.566406 20.859375 L 337.691406 20.859375 L 337.691406 17.421875 C 337.691406 16.570312 337.289062 16.140625 336.488281 16.140625 C 335.894531 16.140625 335.480469 16.3125 335.253906 16.65625 C 335.035156 16.992188 334.925781 17.46875 334.925781 18.09375 L 334.925781 20.859375 L 334.035156 20.859375 L 334.035156 13.265625 Z M 334.925781 13.265625 " transform=" rotate(  340 328.315 17.8606) " style="fill:none;stroke-width:3;stroke-linecap:butt;stroke-linejoin:round;stroke:rgb(100%,100%,100%);stroke-opacity:0.6;stroke-miterlimit:10;"/>
  <path d="M 340.667969 13.484375 C 340.800781 13.484375 340.921875 13.53125 341.027344 13.625 C 341.128906 13.71875 341.183594 13.859375 341.183594 14.046875 C 341.183594 14.234375 341.128906 14.375 341.027344 14.46875 C 340.921875 14.5625 340.800781 14.609375 340.667969 14.609375 C 340.519531 14.609375 340.394531 14.5625 340.292969 14.46875 C 340.199219 14.375 340.152344 14.234375 340.152344 14.046875 C 340.152344 13.859375 340.199219 13.71875 340.292969 13.625 C 340.394531 13.53125 340.519531 13.484375 340.667969 13.484375 Z M 341.105469 15.5 L 341.105469 20.859375 L 340.214844 20.859375 L 340.214844 15.5 Z M 341.105469 15.5 " transform=" rotate(  340 328.315 17.8606) " style="fill:none;stroke-width:3;stroke-linecap:butt;stroke-linejoin:round;stroke:rgb(100%,100%,100%);stroke-opacity:0.6;stroke-miterlimit:10;"/>
  <path d="M 343.683594 20.859375 L 342.792969 20.859375 L 342.792969 13.265625 L 343.683594 13.265625 Z M 343.683594 20.859375 " transform=" rotate(  340 328.315 17.8606) " style="fill:none;stroke-width:3;stroke-linecap:butt;stroke-linejoin:round;stroke:rgb(100%,100%,100%);stroke-opacity:0.6;stroke-miterlimit:10;"/>
  <path d="M 346.265625 20.859375 L 345.375 20.859375 L 345.375 13.265625 L 346.265625 13.265625 Z M 346.265625 20.859375 " transform=" rotate(  340 328.315 17.8606) " style="fill:none;stroke-width:3;stroke-linecap:butt;stroke-linejoin:round;stroke:rgb(100%,100%,100%);stroke-opacity:0.6;stroke-miterlimit:10;"/>
  <g transform=" rotate(  340 328.315 17.8606) " style="fill:rgb(13.333333%,13.333333%,13.333333%);fill-opacity:1;">
   <use xlink:href="#glyph0-1" y="20.860595" x="305.779547"/>
   <use xlink:href="#glyph0-2" y="20.860595" x="312.099547"/>
   <use xlink:href="#glyph0-3" y="20.860595" x="318.279547"/>
   <use xlink:href="#glyph0-4" y="20.860595" x="324.459547"/>
   <use xlink:href="#glyph0-5" y="20.860595" x="328.389547"/>
   <use xlink:href="#glyph0-2" y="20.860595" x="333.189547"/>
   <use xlink:href="#glyph0-6" y="20.860595" x="339.369547"/>
   <use xlink:href="#glyph0-7" y="20.860595" x="341.949547"/>
   <use xlink:href="#glyph0-7" y="20.860595" x="344.529547"/>
  </g>
 </g>
</svg>

<svg xmlns="http://www.w3.org/2000/svg" xmlns:xlink="http://www.w3.org/1999/xlink" viewBox="0 0 497 279"> <defs overflow="visible" style="stroke:none">  <path id="g" d="M1.7 0H.8v-7.6h1Zm0 0"/>  <path id="f" d="M1.3-7.4c.1 0 .3 0 .4.2l.1.4-.1.4-.4.2-.4-.3-.1-.3.1-.4.4-.2Zm.4 2V0H.8v-5.4Zm0 0"/>  <path id="e" d="M3 0c-.5 0-.9 0-1.3-.1-.3-.3-.6-.6-.7-.9-.4-.5-.5-1-.5-1.7 0-.6.2-1.1.5-1.5 0-.6.4-.8.8-1.1.2-.1.8-.2 1.2-.2l.8.1.7.2-.3.8-.6-.2H3c-1-.1-1.5.6-1.5 1.9 0 .7 0 1 .3 1.4.3.5.7.6 1.2.6h.8l.6-.3v.8a2 2 0 0 1-.6.2H3Zm0 0"/>  <path id="d" d="M3.3-5.5H4l-.1 1.1-.3-.3h-.3c-.3 0-.5 0-.8.2l-.5.7-.3 1V0H.8v-5.4h.8v1h.2l.6-.6c.3-.3.6-.5 1-.5Zm0 0"/>  <path id="c" d="M5.3-5.4V0h-.7l-.1-.7c-.3.3-.5.5-.9.6l-.9.2C2.1 0 1.6-.1 1.3-.4 1-.7.8-1.2.8-1.8v-3.6h.9v3.5c0 .8.3 1.3 1.2 1.3.6 0 1-.2 1.1-.5.3-.4.5-.9.5-1.5v-2.8Zm0 0"/>  <path id="b" d="M1.7-7.6v3c.3-.4.4-.5.7-.6.3-.2.7-.3 1-.3.7 0 1.2.2 1.6.5.2.3.4.8.4 1.5V0h-.9v-3.4c0-.9-.4-1.3-1.2-1.3-.6 0-1 .2-1.2.5-.3.3-.4.8-.4 1.4V0H.8v-7.6Zm0 0"/>  <path id="a" d="M4-6.5c-.7 0-1.3.3-1.8.8-.4.5-.6 1.2-.6 2.1 0 1 .2 1.6.6 2.1.4.6 1 .8 1.8.8h1l.6-.3v.8L5 0H4c-.8 0-1.4 0-2-.2a2.8 2.8 0 0 1-1-1.4c-.3-.6-.4-1.2-.4-2 0-.7.1-1.3.4-1.9a3 3 0 0 1 1.2-1.3c.5-.2 1.1-.4 1.8-.4.8 0 1.5.1 2 .4l-.3.7-.8-.2a3 3 0 0 0-.9-.2Zm0 0"/>  <path d="M1 0v-7.1h4V0Zm.4-.5h3.1v-6.1h-3Zm.1 0"/> </defs> <image xlink:href="svg/9/98_21.jpg" width="497" height="279"/> <path d="M309.8 14.4c-.8 0-1.4.3-1.8.8-.4.5-.7 1.2-.7 2.1 0 .9.2 1.6.7 2.1.4.6 1 .8 1.8.8l.9-.2.8-.1v.8l-.8.2h-1c-.8.1-1.4.1-1.9-.3a2.8 2.8 0 0 1-1-1.4c-.4-.5-.4-1.2-.4-2 0-.5.1-1.2.4-1.7A3 3 0 0 1 308 14c.5-.2 1-.4 1.8-.4s1.4.2 2 .4l-.4.8-.7-.3a3 3 0 0 0-.9 0Zm4-1.1v2.9l.7-.6 1-.2c.7 0 1.1.2 1.5.6.3.2.5.7.5 1.4v3.5h-.9v-3.5c0-.8-.4-1.3-1.2-1.3-.6 0-1 .2-1.2.6-.3.3-.4.8-.4 1.3v2.9h-.8v-7.6Zm9.8 2.2v5.4h-.6l-.2-.7-.8.6-1 .2c-.6 0-1-.2-1.4-.5-.4-.3-.6-.8-.6-1.5v-3.5h1V19c0 .8.4 1.2 1.2 1.2.6 0 1-.1 1.2-.5.2-.3.3-.7.3-1.4v-2.8Zm4.2-.1h.6v1h-.4l-.2-.3c-.3.1-.6.1-.8.3-.3.2-.5.4-.6.7l-.2.9v2.9h-.9v-5.4h.7l.1 1 .8-.8c.2-.2.5-.3.9-.3Zm3.6 5.6c-.5 0-.9-.1-1.4-.3-.2-.2-.5-.5-.8-1-.2-.2-.2-.8-.2-1.4 0-.8 0-1.3.3-1.7.2-.4.5-.6.9-.9.3-.2.8-.3 1.3-.3h.7l.8.4-.4.6-.6-.1-.6-.2c-1 .1-1.6.8-1.6 2.1 0 .7.2 1.1.4 1.5.3.3.8.5 1.2.5h.8l.6-.4v.9a2 2 0 0 1-.6.2h-.8Zm3.6-7.7v2.2l-.2.7.8-.6 1-.2c.7 0 1.1.2 1.5.6.3.2.5.7.5 1.4v3.5h-1v-3.5c.1-.8-.2-1.3-1-1.3-.7 0-1.1.2-1.3.6-.3.3-.4.8-.4 1.3v2.9h-.9v-7.6Zm5.7.2.3.1.2.4c0 .2 0 .4-.2.5l-.3.1-.4-.1-.1-.5v-.4l.6-.1Zm.3 2v5.4h-.8v-5.4Zm2.7 5.4h-1v-7.6h1.1Zm2.6 0h-1v-7.6h1.1Zm0 0" style="fill:none;stroke-width:3;stroke-linecap:butt;stroke-linejoin:round;stroke:#fff;stroke-opacity:.6;stroke-miterlimit:10" transform=" rotate(  340 328.315 17.8606) "/> <g style="fill:#222;fill-opacity:1" transform=" rotate(  340 328.315 17.8606) ">  <use xlink:href="#a" x="305.8" y="20.9"/>  <use xlink:href="#b" x="312.1" y="20.9"/>  <use xlink:href="#c" x="318.3" y="20.9"/>  <use xlink:href="#d" x="324.5" y="20.9"/>  <use xlink:href="#e" x="328.4" y="20.9"/>  <use xlink:href="#b" x="333.2" y="20.9"/>  <use xlink:href="#f" x="339.4" y="20.9"/>  <use xlink:href="#g" x="341.9" y="20.9"/>  <use xlink:href="#g" x="344.5" y="20.9"/> </g></svg>
